X: 1
T: Bear Dance, The
Z: ceolachan
S: https://thesession.org/tunes/4195#setting16957
R: polka
M: 2/4
L: 1/8
K: Dmaj
|: BE EB/A/ | BE EG/A/ | BB AG | A2- AG/A/ |
BB A/G/F | GG F/E/D | EG F/E/D | E2- E2 :|
|: E/F/G E/F/G | FD D2 | E/F/G E/F/G | A2- AG/A/ |
BB A/G/F | GG F/E/D | EG F/E/D | E2- E2 :|
